svgs/light/container-storage.svg

<svg xmlns="http://www.w3.org/2000/svg" viewBox="0 0 640 512"><!-- Font Awesome Pro 6.0.0-alpha2 by @fontawesome - https://fontawesome.com License - https://fontawesome.com/license (Commercial License) --><path d="M368 416C376.844 416 384 408.844 384 400V112C384 103.156 376.844 96 368 96S352 103.156 352 112V400C352 408.844 359.156 416 368 416ZM464 416C472.844 416 480 408.844 480 400V112C480 103.156 472.844 96 464 96S448 103.156 448 112V400C448 408.844 455.156 416 464 416ZM272 416C280.844 416 288 408.844 288 400V112C288 103.156 280.844 96 272 96S256 103.156 256 112V400C256 408.844 263.156 416 272 416ZM624 448H608V64H624C632.844 64 640 56.844 640 48S632.844 32 624 32H16C7.156 32 0 39.156 0 48S7.156 64 16 64H32V448H16C7.156 448 0 455.156 0 464S7.156 480 16 480H624C632.844 480 640 472.844 640 464S632.844 448 624 448ZM576 448H64V64H576V448ZM176 416C184.844 416 192 408.844 192 400V112C192 103.156 184.844 96 176 96S160 103.156 160 112V400C160 408.844 167.156 416 176 416Z"/></svg>

<svg xmlns="http://www.w3.org/2000/svg" viewBox="0 0 640 512"><!--! Font Awesome Pro 6.0.0-alpha3 by @fontawesome - https://fontawesome.com License - https://fontawesome.com/license (Commercial License) --><path d="M368 416c8.844 0 16-7.156 16-16v-288C384 103.2 376.8 96 368 96S352 103.2 352 112v288C352 408.8 359.2 416 368 416zM464 416c8.844 0 16-7.156 16-16v-288C480 103.2 472.8 96 464 96S448 103.2 448 112v288C448 408.8 455.2 416 464 416zM272 416C280.8 416 288 408.8 288 400v-288C288 103.2 280.8 96 272 96S256 103.2 256 112v288C256 408.8 263.2 416 272 416zM624 448H608V64h16C632.8 64 640 56.84 640 48S632.8 32 624 32h-608C7.156 32 0 39.16 0 48S7.156 64 16 64H32v384H16C7.156 448 0 455.2 0 464S7.156 480 16 480h608c8.844 0 16-7.156 16-16S632.8 448 624 448zM576 448H64V64h512V448zM176 416C184.8 416 192 408.8 192 400v-288C192 103.2 184.8 96 176 96S160 103.2 160 112v288C160 408.8 167.2 416 176 416z"/></svg>
